X:171
T:The Millpond
B:Music From Ireland, Bk 4
Z:Nigel Gatherer
M:6/8
L:1/8
K:G
DGG BGG|dGG BGG|DFA DFA|DFA cBA|DGG BGG|
dGG BGG|DFA cBA|AGF G3::dgg bgg|aff gee|A^ce aba|
gag fed|dgg bgg|aff gee|Add fed|cAF G3:|
<end>
<start>
